X:98
T:Abbeyfeale Slide, The
R:slide
D:Donal Murphy
Z:id:hn-slide-98
M:6/8
L:1/8
K:D
F2A AFA | Bcd A2G | F2A D2F | E3 EDE |
F2A AFA | Bcd A2G | FAF EFE |1 D3 D2E :|2 D3 D2e ||
|: f2e d2A | Bcd A2d | f2e def | e3 ede |
f2e d2A | Bcd A2G | FAF EFE |1 D3 D2e :|2 D3 D2E ||

